Assets/Vectors/marble_edges.svg

<svg id="27574b39-6c66-42c3-89b3-eb820eb9f988" data-name="Layer 2 copy" xmlns="http://www.w3.org/2000/svg" width="4000" height="3900" viewBox="0 0 4000 3900">
  <title>marble_edges</title>
  <path d="M598,2802.9V3198H2V2802.9H598m2-2H0V3200H600V2800.9h0Z" transform="translate(0 -100)" fill="#fff"/>
  <path d="M1198,2802v396H602V2802h596m2-2H600v400h600V2800h0Z" transform="translate(0 -100)" fill="#fff"/>
  <path d="M1798,2802v396H1202V2802h596m2-2H1200v400h600V2800h0Z" transform="translate(0 -100)" fill="#fff"/>
  <path d="M2398,2802v396H1802V2802h596m2-2H1800v400h600V2800h0Z" transform="translate(0 -100)" fill="#fff"/>
  <path d="M3898,2902v196H2902V2902h996m2-2H2900v200H3900V2900h0Z" transform="translate(0 -100)" fill="#fff"/>
  <path d="M998,3402v196H2V3402H998m2-2H0v200H1000V3400h0Z" transform="translate(0 -100)" fill="#fff"/>
  <path d="M998,3602v396H2V3602H998m2-2H0v400H1000V3600h0Z" transform="translate(0 -100)" fill="#fff"/>
  <path d="M1998,3402v196H1002V3402h996m2-2H1000v200H2000V3400h0Z" transform="translate(0 -100)" fill="#fff"/>
  <path d="M1998,3602v396H1002V3602h996m2-2H1000v400H2000V3600h0Z" transform="translate(0 -100)" fill="#fff"/>
  <path d="M2998,3402v196H2002V3402h996m2-2H2000v200H3000V3400h0Z" transform="translate(0 -100)" fill="#fff"/>
  <path d="M3998,3402v196H3002V3402h996m2-2H3000v200H4000V3400h0Z" transform="translate(0 -100)" fill="#fff"/>
  <path d="M2998,3602v396H2002V3602h996m2-2H2000v400H3000V3600h0Z" transform="translate(0 -100)" fill="#fff"/>
  <path d="M3998,3602v396H3002V3602h996m2-2H3000v400H4000V3600h0Z" transform="translate(0 -100)" fill="#fff"/>
  <path d="M998,1202v796H202V1202H998m2-2H200v800h800V1200h0Z" transform="translate(0 -100)" fill="#fff"/>
  <path d="M3598,102v996H402V102H3598m2-2H400V1100H3600V100h0Z" transform="translate(0 -100)" fill="#fff"/>
  <path d="M3898,502V698H3702V502h196m2-2H3700V700h200V500h0Z" transform="translate(0 -100)" fill="#fff"/>
  <path d="M3998,1402v396H1202V1402H3998m2-2H1200v400H4000V1400h0Z" transform="translate(0 -100)" fill="#fff"/>
  <path d="M3998,2202v396H1202V2202H3998m2-2H1200v400H4000V2200h0Z" transform="translate(0 -100)" fill="#fff"/>
  <path d="M3198,3202v196H2402V3202h796m2-2H2400v200h800V3200h0Z" transform="translate(0 -100)" fill="#fff"/>
  <path d="M798,3202v196H2V3202H798m2-2H0v200H800V3200h0Z" transform="translate(0 -100)" fill="#fff"/>
</svg>

<?xml version="1.0" encoding="utf-8"?>
<!-- Generator: Adobe Illustrator 19.2.1, SVG Export Plug-In . SVG Version: 6.00 Build 0)  -->
<!DOCTYPE svg PUBLIC "-//W3C//DTD SVG 1.0//EN" "http://www.w3.org/TR/2001/REC-SVG-20010904/DTD/svg10.dtd">
<svg version="1.0" id="Layer_2_copy" xmlns="http://www.w3.org/2000/svg" xmlns:xlink="http://www.w3.org/1999/xlink" x="0px"
	 y="0px" width="4000px" height="4000px" viewBox="0 0 4000 4000" enable-background="new 0 0 4000 4000" xml:space="preserve">
<path fill="#FFFFFF" d="M598,2802.9V3198H2v-395.1H598 M600,2800.9H0V3200h600V2800.9L600,2800.9z"/>
<path fill="#FFFFFF" d="M1198,2802v396H602v-396H1198 M1200,2800H600v400h600V2800L1200,2800z"/>
<path fill="#FFFFFF" d="M1798,2802v396h-596v-396H1798 M1800,2800h-600v400h600V2800L1800,2800z"/>
<path fill="#FFFFFF" d="M2398,2802v396h-596v-396H2398 M2400,2800h-600v400h600V2800L2400,2800z"/>
<path fill="#FFFFFF" d="M3898,2902v196h-996v-196H3898 M3900,2900H2900v200h1000V2900L3900,2900z"/>
<path fill="#FFFFFF" d="M998,3402v196H2v-196H998 M1000,3400H0v200h1000V3400L1000,3400z"/>
<path fill="#FFFFFF" d="M998,3602v396H2v-396H998 M1000,3600H0v400h1000V3600L1000,3600z"/>
<path fill="#FFFFFF" d="M1998,3402v196h-996v-196H1998 M2000,3400H1000v200h1000V3400L2000,3400z"/>
<path fill="#FFFFFF" d="M1998,3602v396h-996v-396H1998 M2000,3600H1000v400h1000V3600L2000,3600z"/>
<path fill="#FFFFFF" d="M2998,3402v196h-996v-196H2998 M3000,3400H2000v200h1000V3400L3000,3400z"/>
<path fill="#FFFFFF" d="M3998,3402v196h-996v-196H3998 M4000,3400H3000v200h1000V3400L4000,3400z"/>
<path fill="#FFFFFF" d="M2998,3602v396h-996v-396H2998 M3000,3600H2000v400h1000V3600L3000,3600z"/>
<path fill="#FFFFFF" d="M3998,3602v396h-996v-396H3998 M4000,3600H3000v400h1000V3600L4000,3600z"/>
<path fill="#FFFFFF" d="M998,1202v796H202v-796H998 M1000,1200H200v800h800V1200L1000,1200z"/>
<path fill="#FFFFFF" d="M3598,102v996H402V102H3598 M3600,100H400v1000h3200V100L3600,100z"/>
<path fill="#FFFFFF" d="M3898,502v196h-196V502H3898 M3900,500h-200v200h200V500L3900,500z"/>
<path fill="#FFFFFF" d="M3998,1402v396H1202v-396H3998 M4000,1400H1200v400h2800V1400L4000,1400z"/>
<path fill="#FFFFFF" d="M3998,2202v396H1202v-396H3998 M4000,2200H1200v400h2800V2200L4000,2200z"/>
<path fill="#FFFFFF" d="M3198,3202v196h-796v-196H3198 M3200,3200h-800v200h800V3200L3200,3200z"/>
<path fill="#FFFFFF" d="M798,3202v196H2v-196H798 M800,3200H0v200h800V3200L800,3200z"/>
</svg>
